build/assets/fonts/b178a57fcddb6156a5ec639d1b5d5a24.svg

<svg width="100" height="60" viewBox="0 0 100 60" version="1.1" xmlns="http://www.w3.org/2000/svg" xmlns:xlink="http://www.w3.org/1999/xlink"><title>Amazon-dark</title><desc>Created with Sketch.</desc><g id="Dark-Payment-badges" stroke="none" stroke-width="1" fill="none" fill-rule="evenodd" transform="translate(-290.000000, -1089.000000)"><g id="Amazon-dark" transform="translate(290.000000, 1089.000000)"><rect id="Rectangle" fill="#000" x="0" y="0" width="100" height="60" rx="4"/><path d="M59.3034482,36.6923784 C55.1224434,39.7717966 49.0623322,41.4147775 43.8446894,41.4147775 C36.5287124,41.4147775 29.9424557,38.7109001 24.959698,34.213825 C24.5682187,33.8601909 24.9189827,33.3782514 25.3887602,33.6536449 C30.7661271,36.7800051 37.4150245,38.6608282 44.2831484,38.6608282 C48.915136,38.6608282 54.0106392,37.703203 58.6958711,35.7159787 C59.4036672,35.4155463 59.9955844,36.1791426 59.3034482,36.6923784" id="path8" fill="#F90"/><path d="M61.0416204,34.7051541 C60.5092057,34.022926 57.5089044,34.3828175 56.1622138,34.5424215 C55.7519413,34.5924933 55.6893065,34.2357317 56.0588615,33.9791114 C58.4484558,32.2985769 62.3695201,32.7836475 62.8267687,33.3469551 C63.284015,33.9133938 62.7077588,37.8409027 60.4622285,39.7154638 C60.1177265,40.0033767 59.7888832,39.8500337 59.9423451,39.4682343 C60.4465698,38.2101802 61.5771649,35.3905122 61.0416204,34.7051541" id="path10" fill="#F90"/><path d="M56.2561696,22.1152226 L56.2561696,20.4816301 C56.2561696,20.2344006 56.4440799,20.0685381 56.669572,20.0685381 L63.9886788,20.0685381 C64.2235688,20.0685381 64.4114791,20.2375305 64.4114791,20.4816301 L64.4114791,21.8805114 C64.4083493,22.1152226 64.2110411,22.4219123 63.8602735,22.9069829 L60.067617,28.3178687 C61.4769459,28.2834462 62.9645695,28.4931196 64.2423597,29.2129026 C64.530489,29.3756353 64.6087848,29.6134764 64.6307079,29.84819 L64.6307079,31.5913146 C64.6307079,31.8291557 64.3676328,32.1076779 64.0920312,31.9637232 C61.8402376,30.783905 58.8493318,30.655596 56.3595196,31.9762414 C56.1058411,32.1139388 55.839635,31.8385441 55.839635,31.600703 L55.839635,29.9452039 C55.839635,29.6791976 55.8427648,29.2254197 56.1089709,28.8217161 L60.5029425,22.525186 L56.6789674,22.525186 C56.4440799,22.525186 56.2561696,22.3593246 56.2561696,22.1152226" id="path12" fill="#FFF"/><path d="M29.5572373,32.3079653 L27.3305003,32.3079653 C27.117537,32.2923196 26.9484165,32.1327156 26.9327566,31.9292971 L26.9327566,20.5097977 C26.9327566,20.281345 27.1237991,20.0998331 27.3618188,20.0998331 L29.4382274,20.0998331 C29.6543265,20.1092156 29.8265757,20.2750841 29.8422368,20.4816301 L29.8422368,21.9743978 L29.8829508,21.9743978 C30.4247585,20.531702 31.4426046,19.8588622 32.8143518,19.8588622 C34.2080196,19.8588622 35.0786706,20.531702 35.7050386,21.9743978 C36.2437153,20.531702 37.4682638,19.8588622 38.780506,19.8588622 C39.7137942,19.8588622 40.7347737,20.243789 41.3580095,21.1075279 C42.0626733,22.0682806 41.9186081,23.464032 41.9186081,24.6876635 L41.9154771,31.8948745 C41.9154771,32.1233272 41.7244346,32.3079653 41.4864148,32.3079653 L39.2628076,32.3079653 C39.0404489,32.2923196 38.8619341,32.1139388 38.8619341,31.8948745 L38.8619341,25.842444 C38.8619341,25.3605033 38.9057779,24.1587796 38.7992969,23.7018731 C38.6333097,22.9351505 38.1353471,22.7192137 37.4901869,22.7192137 C36.9515102,22.7192137 36.3877794,23.0791052 36.159155,23.6549323 C35.9305307,24.2307582 35.9524539,25.1946384 35.9524539,25.842444 L35.9524539,31.8948745 C35.9524539,32.1233272 35.7614114,32.3079653 35.5233916,32.3079653 L33.2997868,32.3079653 C33.0742947,32.2923196 32.8989109,32.1139388 32.8989109,31.8948745 L32.8957798,25.842444 C32.8957798,24.568743 33.1056109,22.6941784 31.5240339,22.6941784 C29.9236624,22.6941784 29.9862996,24.5217986 29.9862996,25.842444 L29.9862996,31.8948745 C29.9862996,32.1233272 29.7952571,32.3079653 29.5572373,32.3079653" id="path14" fill="#FFF"/><path d="M70.7127399,19.8588622 C74.0168303,19.8588622 75.8051097,22.6941784 75.8051097,26.2993494 C75.8051097,29.7824688 73.8289177,32.5458064 70.7127399,32.5458064 C67.4681531,32.5458064 65.7017945,29.7104903 65.7017945,26.177299 C65.7017945,22.6221998 67.4900763,19.8588622 70.7127399,19.8588622 M70.7315296,22.1903322 C69.0904477,22.1903322 68.9870953,24.4247847 68.9870953,25.8174087 C68.9870953,27.2131601 68.9651722,30.1924321 70.7127399,30.1924321 C72.4383832,30.1924321 72.5198113,27.7889872 72.5198113,26.3243835 C72.5198113,25.3605033 72.4790973,24.2088515 72.1878346,23.2950396 C71.9372871,22.5001518 71.4393269,22.1903322 70.7315296,22.1903322" id="path16" fill="#FFF"/><path d="M80.0894668,32.3079653 L77.8721252,32.3079653 C77.6497629,32.2923196 77.4712481,32.1139388 77.4712481,31.8948745 L77.4681183,20.4722417 C77.4869092,20.2625658 77.6716884,20.0998331 77.8971806,20.0998331 L79.9610639,20.0998331 C80.1552362,20.1092156 80.3149601,20.2406603 80.3588076,20.4190412 L80.3588076,22.1652945 L80.3995192,22.1652945 C81.0227574,20.6036805 81.8965383,19.8588622 83.4342713,19.8588622 C84.4333277,19.8588622 85.4073311,20.2187537 86.0336991,21.2045417 C86.6162209,22.1183525 86.6162209,23.6549323 86.6162209,24.7596397 L86.6162209,31.9480762 C86.5911668,32.1483613 86.4063875,32.3079653 86.187161,32.3079653 L83.9541583,32.3079653 C83.750587,32.2923196 83.5814676,32.142104 83.5595468,31.9480762 L83.5595468,25.7454301 C83.5595468,24.4967645 83.7036109,22.6691418 82.1658766,22.6691418 C81.6240701,22.6691418 81.1261062,23.0321644 80.878691,23.5829525 C80.5655088,24.28083 80.5247947,24.9755765 80.5247947,25.7454301 L80.5247947,31.8948745 C80.5216649,32.1233272 80.327489,32.3079653 80.0894692,32.3079653" id="path18" fill="#FFF"/><path d="M50.4215517,26.8532686 C50.4215517,27.7201361 50.4434748,28.4430478 50.0050171,29.2129026 C49.6511196,29.8388016 49.0873888,30.2237284 48.464153,30.2237284 C47.6091606,30.2237284 47.108067,29.5727929 47.108067,28.6120402 C47.108067,26.7155713 48.808655,26.3713279 50.4215517,26.3713279 L50.4215517,26.8532686 M52.6670809,32.2766703 C52.5198858,32.4081091 52.306919,32.4174975 52.1409318,32.3298732 C51.4018172,31.7164937 51.2671486,31.4317106 50.8631416,30.8464963 C49.6417242,32.0920321 48.774203,32.4644395 47.1926248,32.4644395 C45.316653,32.4644395 43.8603481,31.309659 43.8603481,28.9969694 C43.8603481,27.1912534 44.8374836,25.9613646 46.2342837,25.3605033 C47.4431735,24.8284884 49.1312326,24.7346055 50.4215517,24.5875198 L50.4215517,24.2996069 C50.4215517,23.7707218 50.4622657,23.144824 50.1490823,22.687921 C49.879744,22.2779565 49.359857,22.1089641 48.8994785,22.1089641 C48.0507482,22.1089641 47.2959772,22.5439628 47.1111968,23.4452552 C47.073615,23.6455439 46.9264199,23.8427015 46.7228485,23.8520899 L44.565012,23.6205062 C44.3833649,23.5798251 44.179796,23.4327369 44.2330377,23.1542148 C44.727868,20.5379629 47.0955393,19.74933 49.2126607,19.74933 C50.2962786,19.74933 51.7118695,20.037243 52.5668619,20.8571685 C53.6504773,21.8679931 53.5471273,23.2168025 53.5471273,24.6845337 L53.5471273,28.1520062 C53.5471273,29.194127 53.9793206,29.65103 54.3864598,30.21434 C54.527394,30.4146251 54.5587126,30.655596 54.3770584,30.8058116 C53.9229419,31.1844811 53.1149269,31.888616 52.6702059,32.2829312 L52.6670761,32.2766643" id="path28" fill="#FFF"/><path d="M21.2296786,26.8532686 C21.2296786,27.7201361 21.2515994,28.4430478 20.8131439,29.2129026 C20.4592441,29.8388016 19.8986454,30.2237284 19.2722774,30.2237284 C18.4172851,30.2237284 17.9193236,29.5727929 17.9193236,28.6120402 C17.9193236,26.7155713 19.6199116,26.3713279 21.2296786,26.3713279 L21.2296786,26.8532686 M23.4752066,32.2766703 C23.3280103,32.4081091 23.1150435,32.4174975 22.9490564,32.3298732 C22.2099441,31.7164937 22.0784053,31.4317106 21.6712662,30.8464963 C20.4498486,32.0920321 19.5854632,32.4644395 18.0007505,32.4644395 C16.1279097,32.4644395 14.6684748,31.309659 14.6684748,28.9969694 C14.6684748,27.1912534 15.6487403,25.9613646 17.0424081,25.3605033 C18.2512979,24.8284884 19.9393595,24.7346055 21.2296786,24.5875198 L21.2296786,24.2996069 C21.2296786,23.7707218 21.2703927,23.144824 20.9603403,22.687921 C20.6878684,22.2779565 20.167985,22.1089641 19.7107351,22.1089641 C18.8620084,22.1089641 18.1041017,22.5439628 17.9193236,23.4452552 C17.8817406,23.6455439 17.7345443,23.8427015 17.5341076,23.8520899 L15.3731387,23.6205062 C15.1914916,23.5798251 14.9910537,23.4327369 15.0411632,23.1542148 C15.5391258,20.5379629 17.9036637,19.74933 20.0207887,19.74933 C21.1044031,19.74933 22.5199941,20.037243 23.3749864,20.8571685 C24.4586043,21.8679931 24.3552519,23.2168025 24.3552519,24.6845337 L24.3552519,28.1520062 C24.3552519,29.194127 24.7874476,29.65103 25.1945867,30.21434 C25.3386508,30.4146251 25.3699693,30.655596 25.1883223,30.8058116 C24.7342059,31.1844811 23.926192,31.888616 23.4814686,32.2829312 L23.4752066,32.2766643" id="path30" fill="#FFF"/></g></g></svg>

<svg width="100" height="60" xmlns="http://www.w3.org/2000/svg"><g fill="none" fill-rule="evenodd"><rect fill="#000" width="100" height="60" rx="4"/><path d="M59.303 36.692c-4.18 3.08-10.24 4.723-15.458 4.723-7.316 0-13.903-2.704-18.885-7.201-.392-.354-.041-.836.429-.56 5.377 3.126 12.026 5.007 18.894 5.007 4.632 0 9.728-.958 14.413-2.945.708-.3 1.3.463.607.976" fill="#F90"/><path d="M61.042 34.705c-.533-.682-3.533-.322-4.88-.163-.41.05-.473-.306-.103-.563 2.39-1.68 6.31-1.195 6.768-.632.457.566-.12 4.494-2.365 6.368-.344.288-.673.135-.52-.247.505-1.258 1.635-4.077 1.1-4.763" fill="#F90"/><path d="M56.256 22.115v-1.633c0-.248.188-.413.414-.413h7.319c.235 0 .422.169.422.413v1.399c-.003.234-.2.54-.55 1.026l-3.793 5.41c1.409-.034 2.897.176 4.174.896.288.163.367.4.389.635v1.743c0 .238-.263.517-.539.373-2.252-1.18-5.243-1.308-7.732.012-.254.138-.52-.137-.52-.375v-1.656c0-.266.003-.72.269-1.123l4.394-6.297h-3.824c-.235 0-.423-.166-.423-.41M29.557 32.308h-2.226a.42.42 0 0 1-.398-.379V20.51c0-.228.19-.41.429-.41h2.076a.42.42 0 0 1 .404.383v1.492h.041c.542-1.442 1.56-2.115 2.931-2.115 1.394 0 2.265.673 2.891 2.115.539-1.442 1.763-2.115 3.076-2.115.933 0 1.954.385 2.577 1.249.705.96.56 2.356.56 3.58l-.003 7.207a.42.42 0 0 1-.429.413h-2.223a.423.423 0 0 1-.401-.413v-6.053c0-.481.044-1.683-.063-2.14-.166-.767-.664-.983-1.309-.983-.538 0-1.102.36-1.33.936-.23.576-.208 1.54-.208 2.187v6.053a.42.42 0 0 1-.429.413H33.3a.42.42 0 0 1-.401-.413l-.003-6.053c0-1.273.21-3.148-1.372-3.148-1.6 0-1.538 1.828-1.538 3.148v6.053a.42.42 0 0 1-.429.413m41.156-12.45c3.304 0 5.092 2.835 5.092 6.44 0 3.483-1.976 6.247-5.092 6.247-3.245 0-5.011-2.836-5.011-6.369 0-3.555 1.788-6.318 5.01-6.318m.02 2.331c-1.642 0-1.745 2.235-1.745 3.627 0 1.396-.022 4.375 1.726 4.375 1.725 0 1.807-2.403 1.807-3.868 0-.963-.04-2.115-.332-3.029-.25-.795-.749-1.105-1.456-1.105m9.358 10.118h-2.218a.423.423 0 0 1-.4-.413l-.004-11.423a.421.421 0 0 1 .43-.372h2.063c.194.01.354.14.398.319v1.746h.04c.624-1.561 1.498-2.306 3.035-2.306 1 0 1.973.36 2.6 1.346.582.913.582 2.45.582 3.555v7.188c-.025.2-.21.36-.429.36h-2.233a.422.422 0 0 1-.394-.36v-6.203c0-1.248.144-3.076-1.394-3.076-.542 0-1.04.363-1.287.914-.313.698-.354 1.393-.354 2.162v6.15a.428.428 0 0 1-.436.413m-29.667-5.455c0 .867.021 1.59-.417 2.36-.354.626-.918 1.01-1.54 1.01-.856 0-1.357-.65-1.357-1.611 0-1.896 1.7-2.24 3.314-2.24v.481m2.245 5.424a.465.465 0 0 1-.526.053c-.74-.614-.874-.898-1.278-1.484-1.221 1.246-2.089 1.618-3.67 1.618-1.876 0-3.333-1.154-3.333-3.467 0-1.806.977-3.036 2.374-3.636 1.21-.533 2.897-.626 4.188-.773V24.3c0-.53.04-1.155-.273-1.612-.27-.41-.79-.579-1.25-.579-.848 0-1.603.435-1.788 1.336-.037.2-.185.398-.388.407l-2.158-.231c-.182-.041-.385-.188-.332-.467.495-2.616 2.863-3.405 4.98-3.405 1.083 0 2.499.288 3.354 1.108 1.083 1.011.98 2.36.98 3.828v3.467c0 1.042.432 1.499.84 2.062.14.2.172.442-.01.592a94.47 94.47 0 0 0-1.707 1.477l-.003-.006M21.23 26.853c0 .867.022 1.59-.417 2.36-.354.626-.914 1.01-1.54 1.01-.856 0-1.354-.65-1.354-1.611 0-1.896 1.7-2.24 3.31-2.24v.481m2.246 5.424a.465.465 0 0 1-.526.053c-.74-.614-.87-.898-1.278-1.484-1.221 1.246-2.086 1.618-3.67 1.618-1.873 0-3.333-1.154-3.333-3.467 0-1.806.98-3.036 2.374-3.636 1.21-.533 2.897-.626 4.188-.773V24.3c0-.53.04-1.155-.27-1.612-.272-.41-.792-.579-1.25-.579-.848 0-1.606.435-1.79 1.336-.038.2-.185.398-.386.407l-2.16-.231c-.183-.041-.383-.188-.333-.467.498-2.616 2.863-3.405 4.98-3.405 1.083 0 2.499.288 3.354 1.108 1.084 1.011.98 2.36.98 3.828v3.467c0 1.042.432 1.499.84 2.062.144.2.175.442-.007.592a94.478 94.478 0 0 0-1.707 1.477l-.006-.006" fill="#FFF"/></g></svg>
